X:21188 
T:SUNSHINE HORNPIPE, The  
B:DMI.0952
Z:Nordberg/Black
R:hornpipe
%Q:1/4=150
M:C
L:1/8
K:A
cd|e2c2 A2ED|CEAc ecAc|d2c2 B2A2|GBFB E2cd|
eace AcED|CEAc ecAc|d2c2 B2G2|Aaec A2:|
Bc|dBGB EGBc|dBGB d2cd|ecA2 EAcd|ecAe a2ga|
fdBd fdcA|GBAF E2cd|eafd cABG|Aaec A2:|


%%
P:source version
cd|(3eae (3cec (3AcA ED|CEAc ecAc|(3dfd (3cec (3BdB (3AcA|\
GBFB E2cd|
eace AcED|CEAc ecAc|(3dfd (3cec (3BdB (3GBG|Aaec A2:|
Bc|dBGB EGBc|dBGB d2cd|ec (3AcA EAcd|ec (3Ace a2ga|
fdBd FD cA|(3GAB (3AGF E2cd|eafd cABG|Aaec A2:|
%

%%%

